X:1
T:You Married Daughter but You Didn't
L:1/8
M:2/2
I:linebreak $
K:G
V:1 treble nm="Voice" snm="Voice"
V:1
 B2 d2 |:"G" g2 g2 fgaf | g2 g2 B2 d2 |"D" f2 f2 efge | f2 f2 B2 d2 |$ g2 g2 fgaf | g2 g2 B2 d2 | %7
 fgfe dBAF |1 G4 B2 d2 :|2 G4 BcdB |:$ G2 G2 DGBG | d2 c2 ABcA | F4 DFAd | e2 d2 BcdB |$ %14
 G2 G2 DGBG | d2 c2 ABcA | F2 fe dBAF |1 G4 BcdB :|2 G4 |] %19
